X:2
T:Tom Dooley (2)
M:4/4
L:1/4
R:blues
P:AB
K:D
A/2 A A/2 B d | f2 f2 | A/2 A A/2 B d | e3 z |  A/2 A A/2 B d | e2 e2 |
e/2 e f/2 e/2d/2 B | d3 z |]
W:
W:Hang down your head, Tom Dooley.
W:Hang down your head and cry.
W:Hang down your head, Tom Dooley.
W:Poor boy, you're going to die.
